X: 83
T:Walts Penydarren
T:The Penydarren Waltz
M:3/4
L:1/8
Q:200
S:Cadw Twmpath Collection
R:Waltz
A:Wales
Z:brian_martin12345@yahoo.com
K:G
DG|B4A2|B4c2|e4d2|B2d2g2|f4e2|F2A2c2|e4d2|B4D2|
B4A2|B4c2|e4d2|B2d2g2|f4e2|F2A2c2|e2d2F2|G4:||
cc|c2B2AA|A2c2ee|e2d2cc|B2d2gg|f2e2FF|F2A2cc|e2d2F2|G4:||
